X:19
T: Anthony Frawley's
R: jig
M: 6/8
L: 1/8
K: Gmaj
|:BA|"G"GED GBA|GED ~G3|GED GAB|"C"dBA "D"~B2 A|
"G"GED GAB|def g2a|bag (3efg e|"C"dBG "D"A:|
|:Bc|"G"~d3 "C"edB|"D"def "G"gfe|~d3 edB|dBA "D"ABc|
     "G"~d3 "C"edB|"D"def "G"g2a|"C"bag (3efg e|dBG "D"A:|

